SF_Symbols/medical.thermometer.fill.svg

<?xml version="1.0" encoding="UTF-8"?>
<svg xmlns="http://www.w3.org/2000/svg" xmlns:xlink="http://www.w3.org/1999/xlink" width="24" height="24" viewBox="0 0 24 24" version="1.1">
<g id="surface1">
<path style=" stroke:none;fill-rule:nonzero;fill:rgb(100%,100%,100%);fill-opacity:1;" d="M 16.40625 2.4375 L 22.1875 8.230469 L 22.238281 8.175781 C 22.761719 7.65625 23.089844 7.0625 23.230469 6.394531 C 23.375 5.722656 23.34375 5.050781 23.136719 4.386719 C 22.933594 3.710938 22.574219 3.113281 22.050781 2.59375 C 21.53125 2.066406 20.933594 1.703125 20.261719 1.5 C 19.585938 1.292969 18.914062 1.261719 18.238281 1.40625 C 17.574219 1.546875 16.980469 1.871094 16.457031 2.386719 Z M 2.675781 19.980469 L 4.644531 21.949219 L 5.949219 20.644531 C 6.476562 20.125 7.015625 19.714844 7.574219 19.417969 C 8.128906 19.117188 8.691406 18.875 9.261719 18.6875 C 9.835938 18.492188 10.414062 18.296875 10.988281 18.105469 C 11.566406 17.902344 12.140625 17.644531 12.707031 17.332031 C 13.277344 17.019531 13.835938 16.589844 14.386719 16.042969 L 21.355469 9.074219 L 15.550781 3.269531 L 8.582031 10.25 C 8.015625 10.828125 7.570312 11.402344 7.25 11.980469 C 6.929688 12.546875 6.671875 13.121094 6.480469 13.699219 C 6.285156 14.265625 6.09375 14.832031 5.90625 15.394531 C 5.726562 15.957031 5.488281 16.515625 5.199219 17.0625 C 4.914062 17.609375 4.507812 18.148438 3.980469 18.675781 Z M 11.96875 12.707031 C 11.628906 12.367188 11.460938 11.964844 11.46875 11.5 C 11.476562 11.035156 11.640625 10.640625 11.96875 10.3125 L 15.113281 7.144531 C 15.441406 6.820312 15.835938 6.652344 16.300781 6.644531 C 16.765625 6.640625 17.160156 6.804688 17.480469 7.144531 C 17.820312 7.464844 17.988281 7.855469 17.988281 8.3125 C 17.988281 8.769531 17.820312 9.171875 17.480469 9.511719 L 14.332031 12.6875 C 14.007812 13.015625 13.609375 13.179688 13.144531 13.1875 C 12.679688 13.1875 12.289062 13.027344 11.96875 12.707031 Z M 9.707031 13.730469 C 9.5625 13.597656 9.496094 13.445312 9.511719 13.269531 C 9.53125 13.097656 9.597656 12.953125 9.707031 12.832031 C 9.828125 12.707031 9.96875 12.644531 10.136719 12.644531 C 10.300781 12.640625 10.453125 12.703125 10.59375 12.832031 L 11.800781 14.03125 C 11.949219 14.171875 12.015625 14.328125 12 14.5 C 11.992188 14.667969 11.925781 14.8125 11.800781 14.9375 C 11.683594 15.046875 11.542969 15.109375 11.375 15.113281 C 11.207031 15.121094 11.050781 15.054688 10.90625 14.917969 Z M 12.71875 11.9375 C 12.851562 12.070312 13.003906 12.148438 13.175781 12.175781 C 13.351562 12.199219 13.507812 12.140625 13.644531 12 L 16.800781 8.824219 C 16.941406 8.683594 16.996094 8.527344 16.96875 8.355469 C 16.949219 8.179688 16.871094 8.03125 16.738281 7.90625 C 16.601562 7.773438 16.441406 7.703125 16.261719 7.699219 C 16.078125 7.691406 15.921875 7.757812 15.78125 7.894531 L 12.71875 10.96875 C 12.585938 11.109375 12.519531 11.269531 12.519531 11.457031 C 12.519531 11.640625 12.585938 11.796875 12.71875 11.9375 Z M 1.125 23.5 C 1.421875 23.804688 1.753906 23.957031 2.113281 23.957031 C 2.476562 23.957031 2.808594 23.804688 3.113281 23.5 L 3.65625 22.96875 L 1.667969 20.980469 L 1.125 21.519531 C 0.820312 21.828125 0.667969 22.160156 0.667969 22.519531 C 0.667969 22.882812 0.820312 23.207031 1.125 23.5 Z M 1.125 23.5 "/>
</g>
</svg>

<svg xmlns="http://www.w3.org/2000/svg" width="24" height="24"><path style="stroke:none;fill-rule:nonzero;fill:#fff;fill-opacity:1" d="m16.406 2.438 5.782 5.792.05-.054c.524-.52.852-1.114.992-1.781a3.893 3.893 0 0 0-.093-2.008 4.184 4.184 0 0 0-1.086-1.793A4.164 4.164 0 0 0 20.26 1.5a3.954 3.954 0 0 0-2.023-.094c-.664.14-1.258.465-1.781.98ZM2.676 19.98l1.969 1.97 1.304-1.305c.528-.52 1.067-.93 1.625-1.227.54-.293 1.106-.54 1.688-.73.574-.196 1.152-.391 1.726-.583.578-.203 1.153-.46 1.719-.773.57-.312 1.129-.742 1.68-1.289l6.968-6.969-5.804-5.804-6.969 6.98c-.566.578-1.012 1.152-1.332 1.73a9.545 9.545 0 0 0-.77 1.72c-.195.566-.386 1.132-.574 1.695-.18.562-.418 1.12-.707 1.668-.285.546-.691 1.085-1.219 1.613Zm9.293-7.273a1.616 1.616 0 0 1-.5-1.207c.008-.465.172-.86.5-1.188l3.144-3.167c.313-.32.742-.5 1.188-.5.465-.004.86.16 1.18.5.34.32.507.71.507 1.168 0 .457-.168.859-.508 1.199l-3.148 3.175c-.312.32-.738.5-1.187.5-.465 0-.856-.16-1.176-.48ZM9.707 13.73a.538.538 0 0 1-.195-.46.761.761 0 0 1 .195-.438.576.576 0 0 1 .43-.187c.172 0 .336.066.457.187l1.207 1.2c.148.14.215.296.199.468a.643.643 0 0 1-.625.613c-.168.008-.324-.058-.469-.195Zm3.012-1.793c.133.133.285.211.457.239a.532.532 0 0 0 .469-.176L16.8 8.824a.517.517 0 0 0 .168-.469.718.718 0 0 0-.23-.449.685.685 0 0 0-.477-.207.623.623 0 0 0-.48.196l-3.063 3.074a.681.681 0 0 0 0 .969ZM1.125 23.5c.297.305.629.457.988.457.364 0 .696-.152 1-.457l.543-.531-1.988-1.989-.543.54c-.305.308-.457.64-.457 1 0 .363.152.687.457.98Zm0 0"/></svg>
